/* XPM */
static char * riderduck_icon_16x16_xpm[] = {
"16 16 87 1",
" 	c #95CAE5",
".	c #94CAE5",
"+	c #91C5DF",
"@	c #85B1C9",
"#	c #B06241",
"$	c #AD6B5A",
"%	c #90C4DF",
"&	c #8EC1DB",
"*	c #92C6E1",
"=	c #95C9E5",
"-	c #93C7E2",
";	c #999BA9",
">	c #C76332",
",	c #86B5CD",
"'	c #BB5A1C",
")	c #9F9097",
"!	c #95C9E4",
"~	c #88B9D2",
"{	c #AB9093",
"]	c #95AEBD",
"^	c #8BB0C4",
"/	c #D6671D",
"(	c #AE827E",
"_	c #85B5CD",
":	c #B7A39E",
"<	c #E3E4E3",
"[	c #EFF0F0",
"}	c #D2BFBB",
"|	c #A48A8D",
"1	c #95CAE6",
"2	c #BEC5CA",
"3	c #FAFAFA",
"4	c #C7ADA6",
"5	c #83B3CB",
"6	c #89B5CC",
"7	c #A9B7C0",
"8	c #99B9CB",
"9	c #7CA9C0",
"0	c #EDEDED",
"a	c #FAFAF9",
"b	c #87AEC3",
"c	c #A0BDCD",
"d	c #E9E9E9",
"e	c #E7E7E7",
"f	c #C1C1C1",
"g	c #E7E8E8",
"h	c #7DA9BF",
"i	c #869491",
"j	c #A79C8A",
"k	c #E9E7E5",
"l	c #ECECEC",
"m	c #DBDBDB",
"n	c #BBC3C8",
"o	c #7EA3B6",
"p	c #8BBCD5",
"q	c #8ABBD4",
"r	c #B8B6AE",
"s	c #C8AC51",
"t	c #C9B993",
"u	c #F9F9F9",
"v	c #E5E5E5",
"w	c #ECEDEC",
"x	c #FBFBFB",
"y	c #F0F0F0",
"z	c #C4C8CA",
"A	c #90BED5",
"B	c #BBC0C3",
"C	c #FBFCFB",
"D	c #DEDEDE",
"E	c #F8F9F9",
"F	c #C5C8C9",
"G	c #7C8C93",
"H	c #688B9A",
"I	c #7D949E",
"J	c #748C98",
"K	c #749BAD",
"L	c #90C3DC",
"M	c #7DA1B2",
"N	c #BBC0C2",
"O	c #C4C6C6",
"P	c #97A1A6",
"Q	c #779FB2",
"R	c #8FC0D9",
"S	c #96CAE5",
"T	c #8DBED6",
"U	c #8EBFD8",
"V	c #92C5DF",
"               .",
"      +        .",
"     @#$  %&*  .",
"    =-;>  ,')-  ",
"    =!~{*]^/(  =",
"    ! _:<[}|-   ",
"   ==1233345    ",
"  67890333ab   =",
"  cdef3333gh = =",
"  .ijk33almnop  ",
"  qrst3uvwxyzA  ",
"   BCDEFGHIJKL  ",
"   MNOPQRSSS    ",
"   *TUV       S ",
"     S  S    SSS",
"              S "};
