/* XPM */
static char * riderduck_icon_32x32_xpm[] = {
"32 32 252 2",
"  	c #95CAE5",
". 	c #95CAE4",
"+ 	c #95C9E4",
"@ 	c #95C9E5",
"# 	c #94C9E5",
"$ 	c #94CAE5",
"% 	c #96CAE5",
"& 	c #89BAD4",
"* 	c #91C5E0",
"= 	c #93C7E2",
"- 	c #93C9E4",
"; 	c #61646C",
"> 	c #A25C40",
", 	c #927E82",
"' 	c #806C6F",
") 	c #8CBED8",
"! 	c #604541",
"~ 	c #D9691E",
"{ 	c #BD5B1A",
"] 	c #EC701F",
"^ 	c #A85D41",
"/ 	c #97CCE8",
"( 	c #7FAEC5",
"_ 	c #8FC2DC",
": 	c #7FADC5",
"< 	c #85B6CE",
"[ 	c #8EC0DA",
"} 	c #81808A",
"| 	c #C9611D",
"1 	c #EC7020",
"2 	c #AD5629",
"3 	c #96CCE8",
"4 	c #7A91A2",
"5 	c #B26241",
"6 	c #8E4416",
"7 	c #8C7E83",
"8 	c #7DA5BA",
"9 	c #CC601C",
"0 	c #A76E62",
"a 	c #96CBE7",
"b 	c #95CAE6",
"c 	c #75A1B7",
"d 	c #E26D20",
"e 	c #BE5C1A",
"f 	c #CF6724",
"g 	c #837E88",
"h 	c #8DC0D9",
"i 	c #7EADC4",
"j 	c #C76420",
"k 	c #7CA3B8",
"l 	c #8FC3DD",
"m 	c #7DA6BA",
"n 	c #84B5CE",
"o 	c #86B7CF",
"p 	c #D4661D",
"q 	c #D5671D",
"r 	c #EB7020",
"s 	c #926862",
"t 	c #92C7E1",
"u 	c #7996A7",
"v 	c #C15D1C",
"w 	c #8BBDD6",
"x 	c #8ABDD6",
"y 	c #798C96",
"z 	c #C3C3C3",
"A 	c #A4ABAF",
"B 	c #81B2CA",
"C 	c #BB5B1E",
"D 	c #EC7120",
"E 	c #9E5F4C",
"F 	c #88B9D2",
"G 	c #B85A1F",
"H 	c #838081",
"I 	c #C1C1C1",
"J 	c #C5C5C6",
"K 	c #CBCCCB",
"L 	c #FAFAFA",
"M 	c #EBEBEB",
"N 	c #817F82",
"O 	c #D06520",
"P 	c #9A6458",
"Q 	c #8ABCD5",
"R 	c #94C9E4",
"S 	c #688391",
"T 	c #C1BCBA",
"U 	c #E2E1E0",
"V 	c #F9FAFA",
"W 	c #EBECEB",
"X 	c #C66324",
"Y 	c #85797F",
"Z 	c #91C4DE",
"` 	c #719BB0",
" .	c #D8D8D8",
"..	c #FBFBFB",
"+.	c #FAFAF9",
"@.	c #F9FAF9",
"#.	c #D1D1D1",
"$.	c #BC5D1D",
"%.	c #7EACC3",
"&.	c #94C9E3",
"*.	c #909699",
"=.	c #D3CFCE",
"-.	c #B69186",
";.	c #6A8D9E",
">.	c #7E94A0",
",.	c #80AFC6",
"'.	c #95CBE6",
").	c #83B2CA",
"!.	c #C9C9C9",
"~.	c #FAFBFA",
"{.	c #758892",
"].	c #7DAAC0",
"^.	c #8297A3",
"/.	c #A6A6A6",
"(.	c #DEDEDE",
"_.	c #BEBFBE",
":.	c #8CA0AC",
"<.	c #799DB0",
"[.	c #597A8B",
"}.	c #EEEEEE",
"|.	c #F5F6F5",
"1.	c #75848C",
"2.	c #7DACC4",
"3.	c #DADBDA",
"4.	c #E3E3E3",
"5.	c #FCFCFC",
"6.	c #CED0D0",
"7.	c #A1A1A1",
"8.	c #EAEBEB",
"9.	c #697E88",
"0.	c #7A9BAE",
"a.	c #D6D6D6",
"b.	c #F5F5F5",
"c.	c #E7E7E7",
"d.	c #B5B6B6",
"e.	c #919191",
"f.	c #F3F4F3",
"g.	c #F9F9F9",
"h.	c #F4F4F4",
"i.	c #E8E8E8",
"j.	c #CCCFCF",
"k.	c #638799",
"l.	c #95CBE5",
"m.	c #81AFC7",
"n.	c #6B7276",
"o.	c #979797",
"p.	c #DDDDDC",
"q.	c #EDEDED",
"r.	c #CACBCB",
"s.	c #A0A0A0",
"t.	c #658392",
"u.	c #7299AD",
"v.	c #7B9AAB",
"w.	c #94CAE6",
"x.	c #7E908F",
"y.	c #9D8420",
"z.	c #846B1E",
"A.	c #9F8442",
"B.	c #B6AD9E",
"C.	c #ECECEC",
"D.	c #E6E6E6",
"E.	c #77848D",
"F.	c #759DB1",
"G.	c #7A98A8",
"H.	c #96CBE6",
"I.	c #759DAF",
"J.	c #83898C",
"K.	c #BEAE87",
"L.	c #E5C127",
"M.	c #C9A924",
"N.	c #CAA826",
"O.	c #AC9964",
"P.	c #FBFBFA",
"Q.	c #D9D9D8",
"R.	c #D5D5D5",
"S.	c #E8E9E8",
"T.	c #8396A0",
"U.	c #ADAEAD",
"V.	c #E1E1E0",
"W.	c #B09B5B",
"X.	c #BCA978",
"Y.	c #C7C0B2",
"Z.	c #D4D3D2",
"`.	c #F3F3F3",
" +	c #A5A6A6",
".+	c #CCCCCC",
"++	c #EEEFEE",
"@+	c #F7F7F7",
"#+	c #F8F8F8",
"$+	c #F1F1F1",
"%+	c #C6C7C6",
"&+	c #748C98",
"*+	c #90C6E1",
"=+	c #989C9E",
"-+	c #C2C2C1",
";+	c #D3D2D2",
">+	c #DCDCDC",
",+	c #A2A4A3",
"'+	c #717678",
")+	c #506A75",
"!+	c #586B73",
"~+	c #788083",
"{+	c #888B8C",
"]+	c #818587",
"^+	c #5E6D74",
"/+	c #5F7D8A",
"(+	c #6E92A1",
"_+	c #84B3CA",
":+	c #7895A4",
"<+	c #F4F5F4",
"[+	c #BABABA",
"}+	c #F5F6F6",
"|+	c #B3B5B5",
"1+	c #586E78",
"2+	c #638390",
"3+	c #6C909E",
"4+	c #7AA2B5",
"5+	c #7BA4B7",
"6+	c #779EB0",
"7+	c #769DAE",
"8+	c #759CAD",
"9+	c #769DAF",
"0+	c #7AA4B6",
"a+	c #82B0C6",
"b+	c #90C4DD",
"c+	c #878C8F",
"d+	c #E5E5E5",
"e+	c #F3F4F4",
"f+	c #E0E1E1",
"g+	c #8D9091",
"h+	c #5D7C89",
"i+	c #6D909F",
"j+	c #7CA6BA",
"k+	c #90C1DA",
"l+	c #96CBE5",
"m+	c #84B3C9",
"n+	c #6B8E9D",
"o+	c #56707B",
"p+	c #7A8488",
"q+	c #8A9194",
"r+	c #767F83",
"s+	c #566D77",
"t+	c #688A99",
"u+	c #7BA5B8",
"v+	c #8EC1D9",
"w+	c #8ABBD3",
"x+	c #83B0C6",
"y+	c #81ACC1",
"z+	c #82AEC3",
"A+	c #85B2C8",
"B+	c #8ABAD2",
"C+	c #93C6E1",
"                  .         + @                             #   ",
"                                                              $ ",
"                  % %               % %                       # ",
"# #                     & *   =                             $ # ",
"                      - ; > , '                       $       $ ",
"                    ) ! ~ { ] ^ /         ( _ : <             # ",
"+                 @   [ } | 1 2 3         4 5 6 7 $         # # ",
"            #   @ @   @   8 9 0 a     b   c d e f g h         @ ",
"        #   @ @ @ + + + @ i j k     l m n o p q r s t       @ # ",
"                    + @   u v h w x y z A B C D E x             ",
"              @ + . + @   F G H I J K L M N O P Q               ",
"              @ + + .   R S T U L L V L W X Y Z           @     ",
"            @ @ @ @ @   `  ...L L L +.@.#.$.%.  %         @   @ ",
"                . @   &.*...L L L L L L =.-.;.    .       @   # ",
"          l >.,.= '.  ).!.L +.L L L L L L ~.{.              @ # ",
"        ].^./.(._.:.<.[.}.L L L L L L +.+.|.1.                # ",
"      b 2.3.4.@.5...6.7...L L L L +.+.+.L 8.9.        @     @ @ ",
"      b b 0.a.b.c.d.e.f.L L L L L g.L h.i.j.k.      @ @   @ @ @ ",
"          l.m.n.o.p.L ..~.L L ~.L +.q.I r.s.t.u.v.'.          @ ",
"#         w.x.y.z.A.B.C.L L L L +.g.L ~.....g.D.E.F.G.H.        ",
"        = I.J.K.L.M.N.O...L L g.g.@.L ~.P.P.~.Q.R.S.T.'.        ",
"          w U.V.W.X.Y.Z.L L @.g.`. +.+++@++.#+$+%+&+*+          ",
"          H.=+-+~...;+h.L @.#+>+,+'+)+!+~+{+]+^+/+(+_+          ",
"            :+<+..@.[+b.L }+|+1+2+3+4+5+6+7+8+9+0+a+b+    %     ",
"            F c+d+@+g.e+f+g+h+i+j+k+l+% % % % % %         %   % ",
"            m+n+o+p+q+r+s+t+u+v+% % % % %   % %                 ",
"              w+x+y+z+A+B+C+          + @ % % %         % %     ",
"$                   %             %                       %     ",
"              %         %       % %               %   %   % %   ",
"                    % %         %   @ %     % %     % % % % %   ",
"                            .                           % % %   ",
"                            @   @     @ @                 % %   "};
